img/edit_usermenu.svg

<?xml version="1.0" encoding="UTF-8"?>
<svg width="15px" height="15px" viewBox="0 0 15 15" version="1.1" xmlns="http://www.w3.org/2000/svg" xmlns:xlink="http://www.w3.org/1999/xlink">
    <!-- Generator: Sketch 48.2 (47327) - http://www.bohemiancoding.com/sketch -->
    <title>noun_322200_cc@3</title>
    <desc>Created with Sketch.</desc>
    <defs></defs>
    <g id="HEADER" stroke="none" stroke-width="1" fill="none" fill-rule="evenodd" transform="translate(-815.000000, -366.000000)">
        <g id="noun_322200_cc" transform="translate(815.000000, 366.000000)" fill="#4A4A4A" fill-rule="nonzero">
            <path d="M12.1611978,0.140785624 C11.5781267,0.341585818 11.128329,0.776652906 10.6951904,1.21171999 L1.21611978,1.21171999 C0.549752779,1.21171999 0,1.76392053 0,2.43325451 L0,13.7784655 C0,14.4477995 0.549752779,15 1.21611978,15 L12.5110405,15 C13.1774075,15 13.7271603,14.4477995 13.7271603,13.7784655 L13.7271603,4.37432305 C14.176958,3.93925597 14.6100966,3.48745553 14.843325,2.90178829 C15.509692,1.12805325 13.9437296,-0.495081658 12.1611978,0.140785624 Z M3.84826945,9.39432791 C3.86492863,9.32739451 3.8815878,9.24372776 3.89824698,9.17679437 L5.88068881,11.168063 C5.03107088,11.3353965 4.18145295,11.5194633 3.33183502,11.7035301 C3.49842677,10.9337961 3.66501852,10.164062 3.84826945,9.39432791 Z M6.41378242,10.6995292 L4.36470388,8.62459383 C4.4146814,8.55766043 4.46465893,8.50746039 4.51463646,8.45726034 C6.19721314,6.76719203 7.896449,5.06039038 9.57902569,3.37032208 C9.99550507,2.95198834 10.3953253,2.55038795 10.8118046,2.13205422 L12.8775424,4.20698956 C12.844224,4.24045626 12.8109057,4.27392296 12.7609281,4.30738965 C11.9446286,5.12732378 11.128329,5.94725791 10.2953702,6.78392538 C8.99595456,8.08912665 7.71319808,9.39432791 6.41378242,10.6995292 Z M12.5110405,14.2971993 L1.21611978,14.2971993 C0.932913806,14.2971993 0.71634453,14.0796658 0.71634453,13.7951988 L0.71634453,2.43325451 C0.71634453,2.14878757 0.932913806,1.93125402 1.21611978,1.93125402 L9.99550507,1.93125402 C8.22963251,3.70498907 6.46375994,5.47872412 4.69788738,7.25245917 C4.26474883,7.68752626 3.49842677,8.20626009 3.23187997,8.79192733 C3.0153107,9.29392781 2.98199235,9.97999514 2.86537812,10.498729 C2.74876389,11.0341962 2.63214967,11.55293 2.51553544,12.0883972 C2.44889874,12.3561308 2.68212719,12.5903977 2.94867399,12.5234643 C4.03152038,12.2891974 5.11436676,12.0549305 6.18055397,11.8206636 C6.21387232,11.8206636 6.24719067,11.8039302 6.28050902,11.8039302 C6.36380489,11.7704635 6.41378242,11.7369968 6.44710077,11.6700634 C7.84647148,10.2644621 9.24584219,8.85886073 10.6285537,7.46999271 C11.411535,6.68352529 12.2111754,5.88032451 12.9941566,5.09385708 L12.9941566,13.8119322 C13.0108158,14.0629324 12.7942465,14.2971993 12.5110405,14.2971993 Z M14.1269805,2.7679215 C13.9603887,3.11932184 13.6771828,3.43725548 13.3939768,3.72172242 L11.3115799,1.63005373 C11.3448983,1.59658703 11.3948758,1.54638698 11.4281941,1.51292028 C11.6780818,1.26192004 11.9279694,1.02765315 12.2444937,0.877053003 C13.5439094,0.291385769 14.7100516,1.46272024 14.1269805,2.7679215 Z" id="Shape"></path>
        </g>
    </g>
</svg>

<svg xmlns="http://www.w3.org/2000/svg" width="15" height="15" viewBox="0 0 15 15">
    <path fill="#4A4A4A" fill-rule="nonzero" d="M12.161.14c-.583.202-1.033.637-1.466 1.072H1.216C.55 1.212 0 1.764 0 2.433v11.345C0 14.448.55 15 1.216 15h11.295c.666 0 1.216-.552 1.216-1.222V4.374c.45-.435.883-.887 1.116-1.472.667-1.774-.9-3.397-2.682-2.761zM3.848 9.395c.017-.067.034-.15.05-.217l1.983 1.991c-.85.167-1.7.351-2.55.536.167-.77.334-1.54.517-2.31zM6.414 10.7l-2.05-2.075c.05-.067.1-.118.15-.168L9.58 3.37l1.233-1.238 2.066 2.075c-.034.033-.067.067-.117.1l-2.466 2.477C8.996 8.089 7.713 9.394 6.414 10.7zm6.097 3.597H1.216a.492.492 0 0 1-.5-.502V2.433c0-.284.217-.502.5-.502h8.78L4.698 7.252c-.433.436-1.2.954-1.466 1.54-.217.502-.25 1.188-.367 1.707-.116.535-.233 1.054-.35 1.59a.355.355 0 0 0 .434.434c1.083-.234 2.165-.468 3.232-.702.033 0 .066-.017.1-.017.083-.034.133-.067.166-.134a175693267.159 175693267.159 0 0 0 6.547-6.576v8.718c.017.25-.2.485-.483.485zm1.616-11.53c-.167.352-.45.67-.733.955L11.312 1.63l.116-.117c.25-.251.5-.485.816-.636 1.3-.586 2.466.586 1.883 1.89z"/>
</svg>
